!!!COM: Jules Massenet
!!!CNT: Francais
!!!TXO: Francais
!!!OTL: Se/re/nade aux Marie/s
!!!LYR: Jules Ruelle
!!!ENC: Jacob Pegg
!!!YOR: Romantic French Song 1830-1870 - David Tunley, ed.,
!!!YOR: New York: Garland Publishing, Inc., 1995, Vol. 6
!!!ODT: 1868/
!!NB: Vocal melody and text only encoded.
!!NB: First instance of melodic material only encoded.
**kern	**silbe
*clef G2	*
*k[f#c#]	*
*M6/8	*
!!created: 12/20/03 14:26
!!proofed and posted: 1/22/04 0:22
!!edit time: 30 min.
=1	=1
2.r	.
=2	=2
4r	.
8r	.
{4a	{Voi-
8dd	-ci
=3	=3
4dd	l’heu-
8cc#	-re
4ee	du
8b	mys-
=4	=4
4b	-te\-
8a}	-re,}
{4dd	{La
8f#	nuit
=5	=5
4f#	va
8e	cou-
4a	-vrir
(cc#q	la
8b)	|
=6	=6
2.a	ter-
=7	=7
4a}	-re,}
8r	.
4.r	.
!!7-12 first melodic phrase repeats
=12	=12
4r	.
8r	.
{8f#	{Dans
8g	les
8a	splen-
=13	=13
(4b	-deurs
8cc#)	|
4dd	e/-
8ee	-toi-
=14	=14
(4ff#	-le/-
8ee	|
8dd)}	-es,}
{8cc#	{Que
8b	vos
=15	=15
(4b	a^-
8e	-mes
4a	en-
8e#	-vo-
=16	=16
4.f#)	-le/-
8f#}	-es}
8r	.
{8f#	{S’u-
=17	=17
4f#	-nis-
8en	-sent
(8dd	ten-
eeq	|
ddq	|
8.cc#)	-dres
16b	e/-
=18	=18
4dd}	-poux;}
8r	.
{(8a	{En-
8a	-dor-
8a)	-mez~
=19	=19
4.a	~vous,
(8a	En-
8a	-dor-
8a)	-mez~
=20	=20
[2.a	~vous!
=21	=21
2.a_	|
=22	=22
4a]}	|}
2r	.
!! the entire melody repeats
*-	*-
